X:1
T:Passacaille
T:Passacaille
T:Suite 7 - HWV 432
T:G. F. Handel (1685-1759) 
C:G. F. Händel (1685-1759)
%%score { ( 1 2 ) | ( 3 4 ) }
L:1/8
Q:1/4=100
M:4/4
K:Bb
V:1 treble nm="Piano" snm="Pno."
V:2 treble 
V:3 bass 
V:4 bass 
V:1
"^Moderato" d>ec>d e>ed>e | c>fe>f d>dc>d | B>BA>B c>cB>c | A>dc>d PBA G2 ::!f! [Bd]3 d [ce]3 d | %5
 c3 c [Bd]3 c | B3 B c3 B | A2 d2!>(! B>A"^*" G2!>)! ::!p! Bdg=f edcB | Acfe dcBA | GBed cBAG | %11
 ^FAdc PBA G2 ::!p! PG2 B2 c2 E2 | PF2 A2 B2 D2 | PE2 G2 A2 C2 | PD2 ^F2 G2 G,2 ::!p! Bdg=f edcB | %17
 Acfe dcBA | GBed cBAG | ^F2 d2 TB>A G2 ::!f! (3z dc (3Bcd (3efg (3cde | (3ABc (3Ffe (3def (3Bcd | %22
 (3GAB (3EFG (3CDE (3A,B,C | z8 ::!f! [Bd]4 [ceg]4 | [Ac]4 [Bd]4 | G2 c2 [Ac]2 B2 | A4 B4 :: %28
!p! g>fTe>d c>BA>G | f>ePd>c B>AG>F | e>dc>B PA>G^F>G | D>Ad>c PB>AG>d :: %32
!f! g/f/e/d/ c/B/A/G/!p! g/f/e/d/ c/B/A/G/ |!f! f/e/d/c/ B/A/G/F/!p! f/e/d/c/ B/A/G/F/ | %34
!f! e/d/c/B/ A/G/F/E/ |!p! e/d/c/B/ A/G/^F/G/ |!f! d/c/B/A/ G/^F/=E/D/!p! d/c/B/A/ G/F/E/D/ :: %37
!f! [Bd]4 [ce]4 | [Ac]4 [Bd]4 | [Ace]4 [Ad]2 B2 | A4 [DG]4 :: %41
!p!"_*" z/ b/a/b/ g/b/f/b/ e/b/d/b/ c/b/B/b/ | A/a/g/a/ f/a/e/a/ d/a/c/a/ B/a/A/a/ | %43
 G/g/f/g/ e/g/d/g/ c/g/B/g/ A/g/G/g/ | A/g/^f/=e/ f/g/e/f/ g/d/c/d/ B/c/A/B/ :: %45
!p! G/d/B/d/ G/d/B/d/"_cresc." G/_d/B/d/ G/d/B/d/ | %46
!f! F/c/A/c/ F/c/A/c/"_dim." F/=B/^G/B/ F/B/G/B/ | %47
!f! =E/_B/G/B/ E/B/G/B/"_dim." D/A/^F/A/ D/B/G/B/ | %48
 _E/A/G/A/ D/A/^F/A/!p! B/G/=F/E/ D/[I:staff +1] C/B,/A,/ :: %49
!p![I:staff -1] d/b/g/b/ d/b/g/b/"_cresc." ^c/b/g/b/ c/b/g/b/ | %50
 =c/a/f/a/ c/a/f/a/ =B/_a/f/a/ B/a/f/a/ | _B/g/=e/g/ B/g/e/g/ A/^f/d/f/"_dim." B/g/d/g/ | %52
 A/g/e/g/ A/^f/c/f/!p! g/d/c/d/ B/c/A/B/ ::!f! !>![Bd]4 !>![ce]4 | !>![Ac]4 !>![Bd]4 | %55
 !>![GAc]4 !>![^FAc]2 !>![GB]2 | !>!A4 !>!B4 :: D/G/B/d/ D/G/B/d/ E/G/B/e/ E/G/B/e/ | %58
 F/A/c/e/ F/A/c/e/ D/F/B/d/ D/F/B/d/ | G/B/e/g/ G/B/e/g/ A/c/e/g/ A/c/e/g/ | %60
 A/c/d/^f/ A/c/d/f/ G/B/d/g/ G/B/d/g/ ::!ff! !>!D/G/B/d/ D/G/B/d/ !>!E/G/B/e/ E/G/B/e/ | %62
 !>!F/A/c/e/ F/A/c/e/ !>!D/F/B/d/ D/F/B/d/ | !>!G/B/e/g/ G/B/e/g/ !>!A/c/e/g/ A/c/e/g/ | %64
[Q:1/4=90]"_rit." !>!G/B/d/g/ !>!A/c/d/^f/ !fermata![Bdg]4 :| %65
V:2
 B>cA>B c>cB>c | A>AG>A B>BA>B | G>G^F>G A>AG>A | ^F>F=E>F G2 x2 :: G3 B G3 B | A3 A F3 A | %6
 G3 G A3 G | ^F2 x6 :: x8 | x8 | x8 | x8 :: x8 | x8 | x8 | x8 :: x8 | x8 | x8 | x8 :: x8 | x8 | %22
 x8 | x8 :: G4 G4 | F4 F4 | E4 ^F2 [DG]2 | [EG]2 ^F2 G4 :: x8 | x8 | x8 | x8 :: x8 | x8 | x4 | x4 | %36
 x8 :: G4 G4 | F4 F4 | G4 ^F2 [DG]2 | [EG]2 [D^F]2 B,4 :: G x7 | x8 | x8 | x8 :: x8 | x8 | x8 | %48
 x8 :: x8 | x8 | x8 | x8 :: G4 G4 | F4 F4 | E4 D2 D2 | [EG]2 [D^F]2 [DG]4 :: x8 | x8 | x8 | x8 :: %61
 x8 | x8 | x8 | x4 G4 :| %65
V:3
!f! D4 C4 | C4 [F,B,]4 | B,4 A,4 | D,2 D,,2 G,,4 :: %4
 .[G,,G,].[=F,,=F,].[E,,E,].[D,,D,] .[C,,C,].[D,,D,].[E,,E,].[C,,C,] | %5
 .[F,,F,].[E,,E,].[D,,D,].[C,,C,] .[B,,,B,,].[C,,C,].[D,,D,].[B,,,B,,] | %6
 .[E,E].[D,D].[C,C].[B,,B,] .[A,,A,].[B,,B,].[C,C].[A,,A,] | %7
 .[D,D].[C,C].[B,,B,].[A,,A,] G,D,B,,D, :: G,2 B,2 C2 E,2 | F,2 A,2 B,2 D,2 | E,2 G,2 A,2 C,2 | %11
 D,2 ^F,2 G,2 G,,2 :: B,,D,G,=F, E,D,C,B,, | A,,C,F,E, D,C,B,,A,, | G,,B,,E,D, C,B,,A,,G,, | %15
 ^F,,A,,D,C, B,,A,, G,,2 :: %16
"_(* Les reprises ne sont pas indiquées dans l'original" G,,G,A,B, C,,C,D,E, | F,,F,G,A, B,,B,CD | %18
 E,,E,F,G, A,,A,B,C | DD,=E,^F, G,B,,C,D, :: [B,,D,G,]4 [E,G,]4 | A,4 [F,B,]4 | [G,B,]4 G,4 | %23
 (3^F,G,A, (3D,DC (3B,CD G,2 :: (3G,,DC (3B,CD (3E,F,G, (3C,D,E, | %25
 (3A,,B,,C, (3F,,F,E, (3D,E,F, (3B,,C,D, | (3E,F,G, (3C,D,E, (3D,=E,^F, (3G,A,B, | %27
 (3CB,A, (3DCD (3B,CD (3G,A,B, :: [B,D]4 [G,C]4 | [A,C]4 [F,B,]4 | [G,B,]4 [E,A,]4 | %31
 [^F,A,]4 [B,,D,G,]4 :: [B,D]4 [G,C]4 | [A,C]4 [F,B,]4 | [G,B,]4 | [E,A,]4 | [^F,A,]4 [B,,D,G,]4 :: %37
 G,,/A,,/B,,/C,/ D,/=E,/^F,/G,/ C,/D,/_E,/=F,/ G,/A,/B,/C/ | %38
 F,,/G,,/A,,/B,,/ C,/D,/E,/F,/ B,,/C,/D,/E,/ F,/G,/A,/B,/ | C,/D,/E,/F,/ G,/A,/B,/C/ D^F,G,B,, | %40
 C,A,,D,D,, G,,B,,C,D, ::"_(* A la reprise seulement)" [B,D]4 [G,C]4 | [A,C]4 [F,B,]4 | %43
 [G,B,]4 [C,A,]4 | D,2 D,,2 G,,2 G,,,2 :: [B,D]4 [G,B,]4 | [F,A,]4 [F,^G,]4 | %47
 [=E,=G,]4 [D,^F,]2 [D,G,]2 | [C,,C,]2 [D,,D,]2 [G,,G,]2 x2 :: [B,D]4 [G,B,]4 | [F,A,]4 [F,=B,]4 | %51
 [=E,_B,]4 A,2 G,2 | [_E,A,]2 A,2 [B,,D,G,]4 :: %53
 G,,/B,,/D,/G,/ G,,/B,,/D,/G,/ C,/E,/G,/C/ C,/E,/G,/C/ | %54
 F,,/A,,/C,/F,/ F,,/A,,/C,/F,/ B,,/D,/F,/B,/ B,,/D,/F,/B,/ | C,/E,/G,/C/ C,/E,/G,/C/ D,^F,G,B,, | %56
 C,A,,D,D,, G,,/G,/^F,/G,/ D,/G,/B,,/D,/ :: [D,G,]4 [E,G,]4 | [C,F,]4 [D,F,]4 | !>!G,4 !>![E,A,]4 | %60
 !>![^F,A,]4 !>![B,,D,G,]4 :: !>!B,,/D,/G,/B,/ B,,/D,/G,/B,/ !>!C,/E,/G,/C/ C,/E,/G,/C/ | %62
 !>!A,,/C,/E,/F,/ A,,/C,/E,/F,/ !>!B,,/D,/F,/B,/ B,,/D,/F,/B,/ | %63
 !>!E,/G,/B,/E/ E,/G,/B,/E/ !>!C,/E,/G,/C/ C,/E,/G,/C/ | !>!D,/G,/B,/D/ !>!D,D,, [B,,D,G,]4 :| %65
V:4
 [G,B,]4 [E,G,]4 | [F,A,]4 [B,,D,]4 | [E,G,]4 [C,E,]4 | x8 :: x8 | x8 | x8 | x4 G,, x3 :: x8 | x8 | %10
 x8 | x8 :: x8 | x8 | x8 | x8 :: x8 | x8 | x8 | x8 :: G,,4 C,4 | F,4 B,,4 | E,4 A,,2 C,2 | %23
 D,2 D,,2 G,,2 (3B,,C,D, :: x8 | x8 | x8 | x8 :: G,4 E,4 | F,4 D,4 | E,4 C,4 | D,4 G,,4 :: %32
 G,4 E,4 | F,4 D,4 | E,4 | C,4 | D,4 G,,4 :: x8 | x8 | x8 | x8 :: G,4 C,4 | F,4 B,,4 | E,4 A,,4 | %44
 x8 :: G,4 =E,4 | _E,4 D,4 | ^C,4 =C,2 B,,2 | x8 :: G,4 =E,4 | _E,4 D,4 | ^C,4 =C,2 B,,2 | %52
 C,2 D,2 G,,4 :: x8 | x8 | x8 | x8 :: !>!G,,4 !>!C,4 | !>!F,,4 !>!B,,4 | E,4 C,4 | D,4 G,,4 :: x8 | %62
 x8 | x8 | x4 !fermata!G,,4 :| %65

